X:50
T:AULDLNG7- Comin thro' the rye. 2nd set.
S:Scots Musical Museum, #418, (1797 and Watlen, 1794)
Q:1/4=120
L:1/8
M:C
K:Bb
F/ F3/2 F3/2 d/ {d}c3/2 B/ c/ d3/2|F/ F3/2 {A}G3/2 F/{F}B4|\
F/ F3/2 f3/2 d/ {d}c3/2 B/ c/ d3/2|F/ F {A}G3/2 F/ {Ac}B4||\
f3/2 d/ B3/2 d/ {d}c3/2 B/ c/ d3/2|f/ d3/2 B/c/ d/f/ {a}g3 f/|\
f3/2 d/ e3/2 c/ (d/B3/2) c3/2 d/|F/ F3/2 {A}G3/2 F/ {F}B4||]
